X: 1086
T: Amber, The
R: mazurka
M: 3/4
K: Dmajor
|:A,D|F2.F2 EF|G2.G2 GA|BA BA GE|FA .d2 A,D|
F2.F2 EF|G2.G2 GA|BA G<F E<F|D4:|
|:A2|d>c df ed|B>D GB dB|A>D FA dA|(3GAG FG E2|
d>c df ed|B>D GB dB|AF D<F E<F|D4:|

